X: 1515
T: Niçin Terkeyleyip Gittin
C: Hacı Ârif Bey
O: Turkey
F: http://compmusic.upf.edu/node/140
N: kurdilihicazkar--sarki--aksak--nicin_terkeyleyip--haci_arif_bey
N: makam= kurdilihicazkar
N: form= sarki
N: usul= aksak = 9/8
M: 9/8
L: 1/16
K: C _B _e _A 
Q: 1/4=108
%%MIDI tuningsystem comma53
f2g6 g2{b}ag g4 z2 | g3ff3_1/4ee3dd2 {e}d2c2  | \
w:  Of   |  of   | 
z2d_1/4e f2g2 a2g2 f2e2 {_1/4b}ag | 
w:  of   | 
g6 gagf _1/4efg4z2  | _1/4b2a4g2 ^f2g2 a2b2 ag | \
w:  of   SAZ  |  Ni çin  *  terk_  | 
g3/2^f/ gag2 f2e2 {f}edc6  | 
w:  ey  | 
_1/4b2a4g2 ^f2g2 a2b2 ag | g6 d2e2 ^f2g4z2  | \
w:  le yip  *  git  |  tin  SAZ  | 
c2c4d2 e2{f}ed e2^f2 g2 | 
w:  a  za   | 
a3{b}g^f4g3{a}fe6  | ^f2g2 a3{b}g f2g2 a2_1/4b2 ag | \
w:   |  za  | 
g6 d2e2 ^f2g6  | 
w:  lim   SAZ  | 
g2a6 a2{b}ag a6 | g2 a4 aga2 {b}aga4g2  | \
w:  Of   |  of   | 
z2c'4{d'}c'_1/4b b3a {d'}c'ba2 ag | 
w:  of   | 
g6 d2e2 f2g6  | f2g4f2 e2f2 g2a2 b2 | \
w:  of   SAZ  |  Se ni  *  sev  | 
g2 {b}aga2 f2f2 {a}gfg2 edc2  | 
w:  mek   | 
d2e2 d2g2 f2e2 d2c2 d2 | B2 {d}c4 B2A2 {B}AGG4z2  | \
w:  mi dir  *  *  bil  |  mem   | 
c2d6 d2{e}dc d2e2 f2 | 
w:  ve bâ   | 
g2 {a}gfe3/2d/ c2B2 A2G2 F4  | {f}edc4cB B3A {d}cBA2 AG | 
w:   |  *  ve *  bâ  | 
G6 f2_1/4e2 f2g4z2  | f2g6 g4 d2{e}d2 _1/4e2 | \
w:  lim   SAZ  |  Of   | 
f3ag2 f2e3dc4z2  | B2cd e3/2d/c2 B3A {d}cBA2 AG | 
w:  of   |  of   | 
G6 dedc Bcd6  | c2c4d2 d3c d2e2 f2 | \
w:  of   SAZ  |  Fe dâ  *  ol  | 
g2 {a}gfe3/2d/ c2B2 A2G2 F4  | 
w:  sun   | 
edc4{d}cB B3A cBA2 AG | G6 f2_1/4e2 g2f6  | \
w:  sa *  na  *  *  *  bu   |  cân_ SAZ  | 
_1/4e2f6 f3e d2{e}d2 e2 | 
w:  ü  mâ   | 
f3=ag2 f2e3dc4z2  | (3_1/4e2f2g2 (3=a2g2f2 f3e gfe2 ed | 
w:   |  mâ  | 
d6 f2_1/4e2 g2f6  | _1/4e2f6 f2{g}fe f6 | \
w:  lim   SAZ  |  Of   | 
g2 =a6a3gg2 f2_1/4e2  | f2g4{a}gf f2_1/4e2 {a}gfe2 ed | 
w:  of   |  of   | 
d6 g2^f2 _7/8a2g6  | ^f2g4gf f3e gfe2 ed | \
w:  of   SAZ  |  Yi ne  *  *  gör  | 
d6 c2c2 {e}dcc6  | 
w:  mek  | 
(3B2c2d2 (3e2d2c2 B3A cBA2 AG | G6 dedc BAG4z2  | 
w:  li *  *  ğe  *  *  yok  |  sa  SAZ  | 
c2c4d2 e2{f}ed e2^f2 g2 | a3{b}g^f4g3{a}fe6  | \
w:  a  za   |   | 
^f2g2 a3{b}g f2g2 a2_1/4b2 ag | 
w:  za  | 
g6 d2e2 ^f2g6  | g2a6 a2{b}ag a6 | g2 a4 aga2 {b}aga4g2  | \
w:  lim   SAZ  |  Of   |  of   | 
z2c'4{d'}c'_1/4b b3a {d'}c'ba2 ag | 
w:  of   | 
g6 d2e2 f2g6  | f2g4f2 e2f2 g2a2 b2 | \
w:  of   SAZ  |  Se ni  *  sev  | 
g2 {b}aga2 f2f2 {a}gfg2 edc2  | 
w:  mek   | 
d2e2 d2g2 f2e2 d2c2 d2 | B2 {d}c4 B2A2 {B}AGG4z2  | \
w:  mi dir  *  *  bil  |  mem   | 
c2d6 d2{e}dc d2e2 f2 | 
w:  ve bâ   | 
g2 {a}gfe3/2d/ c2B2 A2G2 F4  | {f}edc4cB B3A {d}cBA2 AG | 
w:   |  *  ve *  bâ  | 
G6 |
w:  lim    | 


